**kern	**text
*clefG2	*
*k[f#]	*
*M4/4	*
*MM120	*
=1	=1
1r	.
=2	=2
1r	.
=3	=3
1r	.
=4	=4
1r	.
=5	=5
1r	.
=6	=6
1r	.
=7	=7
1r	.
=8	=8
1r	.
=9	=9
1r	.
=10	=10
1r	.
=11	=11
1r	.
=12	=12
1r	.
=13	=13
1r	.
=14	=14
1r	.
=15	=15
1r	.
=16	=16
4e'	ね
8r	.
8d#X	も
4e'	お
8r	.
8B	く
=17	=17
8cL	ら
*clefF4	*
8B	く
8B-X	な
8BnJ	り
8cL	そ
8B	お
*clefG2	*
8c#X	だ
8d#XJ	か
=18	=18
4e'	ら
8r	.
8f#	で
4g'	ちゃ
8r	.
16eLL	て
16eJJ	も
=19	=19
8f#L	い
8g	い
8f#	か
8eJ	し
4d#X'	ら
4r	.
=20	=20
4e'	ちょ
8r	.
8d#X	と
4e'	ね
8r	.
8B	ま
=21	=21
8cL	ほ
*clefF4	*
8B	お
8B-X	に
8BnJ	か
8cL	け
8B	ら
*clefG2	*
8c#X	れ
8d#XJ	た
=22	=22
4e'	き
8r	.
8f#	み
4g'	の
8r	.
8a	お
=23	=23
8bL	か
8cc	し
8b	か
8aJ	ら
8gL	た
8f#	べ
8e	ちゃ
8d#XJ	う
=24	=24
4e'	ぞ
4r	.
2r	.
=25	=25
1r	.
=26	=26
1r	.
=27	=27
1r	.
=28	=28
4e'	き
8r	.
8d#X	と
4e'	も
8r	.
8B	き
=29	=29
8cL	り
*clefF4	*
8B	が
8B-X	こ
8BnJ	く
8cL	な
8B	る
*clefG2	*
8c#X	か
8d#XJ	ら
=30	=30
4e'	み
8r	.
8f#	ん
4g'	な
8r	.
8e	あ
=31	=31
8f#L	つ
8g	ま
8f#	る
8eJ	か
4d#X'	な
4r	.
=32	=32
4e'	じ
8r	.
8d#X	と
4e'	ま
8r	.
16BLL	て
16BJJ	あ
=33	=33
8cL	ま
*clefF4	*
8B	い
8B-X	も
8BnJ	の
8cL	が
8B	ま
*clefG2	*
8c#X	ん
8d#XJ	し
=34	=34
4e'	た
8r	.
8f#	ご
4g	ほ
8r	.
8a	び
=35	=35
4b'	お
8r	.
8cc	ほ
4b'	ら
8r	.
8b-X	ひ
=36	=36
8bL	と
8b'J	つ
8r	.
8b-X	ふ
8bnL	た
8b'J	つ
8r	.
8b-X	か
=37	=37
4b'	ね
8r	.
8b	の
4cc'	ね
8r	.
8a	さ
=38	=38
4b'	わ
8r	.
8g	ぎ
8aL	だ
8a'J	つ
4f#	ち
=39	=39
16gLL	さ
16gJ	い
8f#J	お
8gL	ば
8aJ	け
8gL	た
16aL	あ
16gJJ	あ
4f#	ち
=40	=40
4b'	きょ
8r	.
8b-X	お
4bn'	わ
8r	.
8b-X	ゆ
=41	=41
4b'	る
8r	.
8cc	し
4b'	て
8r	.
8a	く
=42	=42
4b'	れ
8r	.
8g	る
4a'	の
4g	さ
=43	=43
8f#L	ま
8B	ち
8c#X	に
8d#XJ	い
4e'	こ
4r	.
=44	=44
8eL	だ
8f#	て
8g	は
8aJ	ぴ
8bL	は
16gL	ろ
[16eJJ	うぃ
16eLL]	.
16e	ん
16.cc	た
32ccJJk	ず
=45	=45
*^	*
8bL	2r	ら
8gJ	.	ち
16dLL	.	ちゃ
16dJ	.	う
8bJ	.	ぞ
14aLL	8r	でぃ
14a	.	ん
.	16g'LL	ど
14g'JJ	.	ん
.	[16f#JJ	だ
14r	.	.
.	32f#]	.
.	32r	.
14f#	.	ん
.	16r	.
7r	.	.
.	8r	.
*v	*v	*
=46	=46
8eL	あ
16eL	ち
16f#JJ	も
8gL	こ
16.aL	ち
32aJJk	と
16.bLL	り
32bK	く
16g	こ
[16eJJ	り
16.eLL]	.
32eK	く
16cc	きゃ
16ccJJ	ん
=47	=47
8bL	でぃ
16.ccL	わ
32ccJJk	く
8bL	れ
16ccL	な
16ccJJ	い
4b	の
4r	.
=48	=48
8eL	だ
8f#	て
8g	は
8aJ	ぴ
8bL	は
16gL	ろ
[16eJJ	うぃ
16eLL]	.
16e	ん
16cc	た
16ccJJ	い
=49	=49
8bL	け
8gJ	な
16dLL	ら
16d	ん
16b	た
16bJJ	ん
16.aLL	ぱ
32aK	ん
16g	ぷ
[16f#JJ	き
16f#KL]	.
8.f#'J	ん
=50	=50
8eL	つ
8f#	か
8g	れ
8aJ	た
8b'L	じゃ
16gL	く
[16eJJ	も
8eL]	.
16.ccL	ど
32ccJJk	る
=51	=51
8bL	よ
8B	あ
8c#X	さ
8d#XJ	ま
4e'	で
4r	.
=52	=52
8eL	だ
8f#	て
8g	は
8aJ	ぴ
8bL	は
16gL	ろ
[16eJJ	うぃ
16eLL]	.
16e	ん
16.cc	ば
32ccJJk	く
=53	=53
8bL	の
16.gL	か
32gJJk	ぶ
8d'L	だ
8bJ	て
8aL	ら
16gL	ら
[16f#JJ	ら
8f#]	.
8r	.
=54	=54
8eL	きょ
8f#J	わ
16.gLL	ま
32gK	ち
16.a	じゅ
32aJJk	と
16.bLL	り
32bK	く
16g	こ
[16eJJ	り
16.eLL]	.
32eJK	く
8ccJ	ちょ
=55	=55
8bL	こ
16ccL	も
[16bJJ	ちょ
8bL]	.
16ccL	だ
16ccJJ	い
4b	よ
4r	.
=56	=56
*^	*
8eL	2r	だ
8f#	.	て
8g	.	は
8aJ	.	ぴ
8bL	8r	は
8g'J	16r	ろ
.	[16e	うぃ
48r	32e]	.
24.eLL	.	ん
.	32r	.
.	16r	.
24e	.	ふ
16.cc	8r	し
32ccJJk	.	ぎ
*v	*v	*
=57	=57
8bL	な
16gL	せ
[16dJJ	か
16dLL]	.
16dJ	い
8bJ	え
8aL	よ
16gL	こ
[16f#JJ	そ
8.f#]	.
16r	.
=58	=58
8eL	つ
8f#	か
8g	れ
8aJ	た
8b'L	じゃ
16gL	く
[16eJJ	も
8eL]	.
16ccL	た
16ccJJ	う
=59	=59
8bL	よ
16.BL	れ
32BJJk	す
16.c#XLL	り
32c#K	く
16.d#X	こ
32d#JJk	と
8eL	り
8e'J	く
4r	.
=60	=60
1r	.
=61	=61
1r	.
=62	=62
1r	.
=63	=63
1r	.
=64	=64
1r	.
=65	=65
1r	.
=66	=66
1r	.
=67	=67
1r	.
=68	=68
1r	.
=69	=69
1r	.
=70	=70
1r	.
=71	=71
1r	.
=72	=72
1r	.
=73	=73
1r	.
=74	=74
1r	.
=75	=75
1r	.
=76	=76
1r	.
=77	=77
1r	.
=78	=78
1r	.
=79	=79
1r	.
=80	=80
4b'	も
8r	.
8b-X	と
4bn'	も
8r	.
8b-X	と
=81	=81
4b'	ほ
8r	.
8cc	し
4b'	い
4r	.
=82	=82
4b'	よ
8r	.
8b-X	く
4bn'	ば
8r	.
8b	り
=83	=83
4.cc	ご
8b	す
4f#'	と
4r	.
=84	=84
4b	も
8r	.
8cc	な
4b'	い
8r	.
8b-X	そ
=85	=85
4b'	れ
8r	.
8cc	な
4b'	ら
8r	.
8b-X	い
=86	=86
4b'	た
8r	.
8b-X	ず
4bn'	ら
8r	.
8b	の
=87	=87
4cc'	え
4r	.
4b'	じ
8r	.
8e	き
=88	=88
4fn'	ね
4r	.
2r	.
=89	=89
1r	.
=90	=90
1r	.
=91	=91
1r	.
=92	=92
1r	.
=93	=93
1r	.
=94	=94
8fnL	く
8g	れ
8g#X	な
8b-XJ	い
4bn	い
4cc'	え
=95	=95
8bL	な
8bJ	ん
4cc'	て
8bL	に
8cc	わ
8g#X	き
8gnJ	に
=96	=96
8fnL	と
8gJ	い
8.g#X'L	れ
16b-XJk	と
4bn	ぺ
4cc	ぱ
=97	=97
8bL	ぐ
8cc	る
8b	ぐ
8ccJ	る
16g#XLL	し
16gnJ	ちゃ
8fnJ	え
4r	.
=98	=98
8fnL	こ
8g	ん
8g#X	や
8b-XJ	わ
8bnL	ら
8b	ん
8cc	た
8ccJ	ん
=99	=99
4b	と
8.cc'	うぉ
32r	.
32cc	し
8bL	て
8cc	る
8g#X	な
8gnJ	ら
=100	=100
8fnL	あ
8g	ま
8g#X	い
8b-XJ	の
4bn	ちょ
16ccLL	だ
16ccJ	い
8cc#XJ	さ
=101	=101
8ccL	あ
16.cL	れ
32cJJk	す
8dL	ぱ
8eJ	てぃ
8fnL	な
8f'J	い
8r	.
16g#XLL	ほ
16gnJJ	ら
=102	=102
*^	*
8fnL	2r	だ
8g	.	て
8g#X	.	は
8b-XJ	.	ぴ
8ccL	8r	は
8g#'J	16r	ろ
.	[16f	うぃ
48r	32f]	.
24.fLL	.	ん
.	32r	.
.	16r	.
24f	.	と
16cc#X	8r	け
16cc#JJ	.	い
*v	*v	*
=103	=103
8ccL	も
8g#X	ま
8d#X	わ
8ccJ	る
8b-X'L	てぃ
16g#L	く
[16gnJJ	た
16.gLL]	.
32gJJk	く
8r	.
=104	=104
8fnL	あ
16fL	ち
16gJJ	も
8g#XL	こ
16.b-XL	ち
32b-JJk	と
16.ccLL	り
32ccK	く
16g#	こ
[16fJJ	り
32fLLL]	.
32fJ	く
16f	め
16.cc#X	も
32cc#JJk	く
=105	=105
*^	*
8ccL	8r	ら
8cc#X'J	16r	む
.	[16ccn	ぱ
48r	32cc]	.
24.ccLL	.	ん
.	32r	.
.	16r	.
24cc	.	ぷ
16cc#X	8r	き
16cc#JJ	.	ん
8ccnL	2r	ぱ
8cc'J	.	い
4r	.	.
=106	=106	=106
2r	8fnL	.
.	8g	て
.	8g#X	は
.	8b-XJ	ぴ
8r	8ccL	.
16r	8b-'J	.
[16cc	.	うぃ
32cc]	48r	.
.	24.ccLL	ん
32r	.	.
16r	.	.
.	24ccJ	だ
8r	8dd#XJ	.
*v	*v	*
=107	=107
8ccL	よ
8b	ふ
8cc	か
8ccJ	し
16.b-XLL	ちゃ
32b-K	う
16g#X	じゃ
[16gnJJ	な
16gKL]	.
8.g'J	い
=108	=108
8fnL	つ
8g	か
8g#X	れ
8b-XJ	た
8cc'L	じゃ
16g#L	く
[16fJJ	も
16fLL]	.
16f	ね
16cc#X	な
16cc#JJ	い
=109	=109
8ccL	わ
8c	あ
8d	さ
8eJ	ま
4fn'	で
4r	.
=110	=110
8fnL	だ
8g	て
8g#X	は
8b-XJ	ぴ
8ccL	は
16g#L	ろ
[16fJJ	うぃ
16fKL]	.
8.f'J	ん
=111	=111
1r	.
=112	=112
8fnL	だ
8g	て
8g#X	は
8b-XJ	ぴ
8ccL	は
16g#L	ろ
[16fJJ	うぃ
16fKL]	.
8.f'J	ん
=113	=113
1r	.
=114	=114
8fnL	だ
8g	て
8g#X	は
8b-XJ	ぴ
8ccL	は
16g#L	ろ
[16fJJ	うぃ
16fKL]	.
8.f'J	ん
=115	=115
1r	.
=116	=116
8fnL	きょ
8g	わ
8g#X	は
8b-XJ	ぴ
8ccL	は
16g#L	ろ
[16fJJ	うぃ
16fLL]	.
16fJ	ん
8cc#XJ	さ
=117	=117
8ccL	あ
16.cL	れ
32cJJk	す
16.dLL	り
32dK	く
16.e	こ
32eJJk	と
8fnL	り
8f'J	く
16r	.
16fLL	あ
16cc#X	か
16cc#JJ	い
=118	=118
16ccLL	きゃ
16ccJ	ん
8cJ	でぃ
16dLL	こ
16d	ろ
16.e	が
32eJJk	し
4fn'	て
16r	.
16fLL	あ
16cc#X	さ
16cc#JJ	ま
=119	=119
8ccL	で
8cc	ね
8dd	た
8eeJ	く
16ffnKL	な
8.ff'J	い
4r	.
==	==
*-	*-
